src/pos-icons/watch-import-variant.svg

<svg height="24" viewBox="0 0 24 24" width="24" xmlns="http://www.w3.org/2000/svg"><path d="m1 11h5l-2.5-2.5 1.42-1.42 4.92 4.92-4.92 4.92-1.42-1.42 2.5-2.5h-5zm7-11h8l.83 5h.17a2 2 0 0 1 2 2v10c0 1.11-.9 2-2 2h-.17l-.83 5h-8l-.83-5h-.17c-.54 0-1-.21-1.38-.56l1.44-1.44h9.94v-10h-9.94l-1.44-1.44c.38-.35.84-.56 1.38-.56h.17z"/></svg>

<?xml version="1.0" encoding="UTF-8"?><!DOCTYPE svg PUBLIC "-//W3C//DTD SVG 1.1//EN" "http://www.w3.org/Graphics/SVG/1.1/DTD/svg11.dtd"><svg xmlns="http://www.w3.org/2000/svg" xmlns:xlink="http://www.w3.org/1999/xlink" version="1.1" id="mdi-watch-import-variant" width="24" height="24" viewBox="0 0 24 24"><path d="M1,11H6L3.5,8.5L4.92,7.08L9.84,12L4.92,16.92L3.5,15.5L6,13H1V11M8,0H16L16.83,5H17A2,2 0 0,1 19,7V17C19,18.11 18.1,19 17,19H16.83L16,24H8L7.17,19H7C6.46,19 6,18.79 5.62,18.44L7.06,17H17V7H7.06L5.62,5.56C6,5.21 6.46,5 7,5H7.17L8,0Z" /></svg>
